public/avatar/item0/59.svg

<svg xmlns:xlink="http://www.w3.org/1999/xlink" height="58.65" width="49.15" xmlns="http://www.w3.org/2000/svg"><use height="15.1" transform="translate(6.3 22.55)" width="34.55" xlink:href="#a"/><defs><g id="a" fill-rule="evenodd"><path d="m-11.25 10.15-.7-.15.05.5q.9 3.45 3.1 4.4 2.5.05 4.85-1 1.45-.7 1.8-1.8l-9.1-1.95M13.2 4.6h-.05q1.6-.6 3.15 3l.05.2q1.3 4.85-1.55 8.45l-.65.85-.15.1-1.55 1.4-.1.1q-1.95 1.05-4.1.8-4.65-.4-8.7-4-4.2 3.55-8.85 3.95-2.15.25-4.1-.8l-.1-.1-1.5-1.4-.8-.95q-2.9-3.6-1.55-8.45l.05-.2q1.5-3.6 3.15-3 1.2.3 4.25 1.5l9.4 2.9L8.9 6.1q3-1.2 4.3-1.5M11 10.55h-.05l.15-.6-2.05.6-7.85 1.6q.25 1.1 1.8 1.8 2.35 1.05 4.85 1 2.2-.95 3.15-4.4" transform="translate(17.8 -4.45)"/><path d="M15.85 7.8v.05q1.25 4.65-1.45 8.1l-.65.8-.15.1-1.45 1.35-.05.05q-1.8 1-3.8.75-4.7-.4-8.75-4.2-4.2 3.75-8.9 4.15-2 .25-3.8-.75l-.05-.05-1.45-1.35-.75-.9q-2.75-3.45-1.45-8.1v-.05q1.3-3.1 2.55-2.75l4.2 1.5 9.6 2.95 9.55-2.9 4.25-1.5q1.2-.35 2.55 2.75M10.2 9.7q-4.55 1.3-9.55 2 0 1.7 2.15 2.7 2.5 1.15 5.2 1.05 2.45-1 3.45-4.8.25-1.15-.25-1.1l-1 .15M-.45 14.25l-.05-.05v.05h.05m-10.7-4.6-1-.15q-.5-.05-.25 1.1 1 3.8 3.45 4.8 2.7.1 5.2-1.05 2.1-1 2.15-2.7-5-.7-9.55-2m23.6 7.05v-.05l-.05.05h.05" fill="#280014" transform="translate(17.8 -4.45)"/><path d="m3.7 15.35 4.2.5H8l.15-.05q1.75-.55 2.8-2.05.8-1.05 1.2-2.85.2-1.25-.35-1.7-.5-.6-1.3-.3l-4.25 1.2.5-1.95 4.15-1.4.25-.05.2-.1.2-.1.3-.15 1.25-.4q1.05-.3 1.8 2.15 1.1 4.2-1.35 7.25v.05l-.4.45-.75.85.05-.05-.25.3-.25.25q-1.5 1.25-4.55.7-2.25-.4-4.45-1.5l.75-1.05m5 1.2.2-.05h-.05l-.15.05" fill="#4b0126" transform="translate(17.8 -4.45)"/><path d="m3.7 15.35-.75 1.05-3.15-1.95-.25-.2H-.5v-.05h-.05q-4 3-7.85 3.65l-.25.05-.1-.3-.15-.45q-.15-.8-.45-1.45l.2.05.2.05h.1q2.7.25 5.4-1 2.2-1.1 2.3-3l-.05-.5-9.5-2.2-.05-.05-.4-2.05Q-6.35 8.7-.6 9.85l.1.05.25-.05 7-1.7-.5 1.95-6 1.2v.05l-.05.3v.15q.1 1.9 2.3 3.05l1.2.5" fill="#603" transform="translate(17.8 -4.45)"/><path d="m-10.7 9.1-.75-.25q-.8-.3-1.3.3-.55.45-.35 1.7.4 1.8 1.2 2.85 1 1.45 2.55 2 .3.65.45 1.45l.15.45.1.3-.35.05q-2.6.35-3.95-.75l-1-1.1-.25-.3-.35-.45-.05-.05q-2.45-3.05-1.3-7.25.7-2.45 1.75-2.15l1.25.4q.2.1.35.15l.2.1.2.1.2.05.7.25.1.05.4 2.05.05.05m-2.05-.5v.05l.05-.05h-.05" fill="#840042" transform="translate(17.8 -4.45)"/></g></defs></svg>

<?xml version="1.0" encoding="UTF-8" standalone="no"?>
<svg xmlns:xlink="http://www.w3.org/1999/xlink" height="58.65px" width="49.15px" xmlns="http://www.w3.org/2000/svg">
  <g transform="matrix(1.0, 0.0, 0.0, 1.0, 24.1, 18.1)">
    <use height="15.1" transform="matrix(1.0, 0.0, 0.0, 1.0, -17.8, 4.45)" width="34.55" xlink:href="#shape0"/>
  </g>
  <defs>
    <g id="shape0" transform="matrix(1.0, 0.0, 0.0, 1.0, 17.8, -4.45)">
      <path d="M-11.25 10.15 L-11.95 10.0 -11.9 10.5 Q-11.0 13.95 -8.8 14.9 -6.3 14.95 -3.95 13.9 -2.5 13.2 -2.15 12.1 L-11.25 10.15 M13.2 4.6 L13.15 4.6 Q14.75 4.0 16.3 7.6 L16.35 7.8 Q17.65 12.65 14.8 16.25 L14.15 17.1 14.0 17.2 12.45 18.6 12.35 18.7 Q10.4 19.75 8.25 19.5 3.6 19.1 -0.45 15.5 -4.65 19.05 -9.3 19.45 -11.45 19.7 -13.4 18.65 L-13.5 18.55 -15.0 17.15 -15.8 16.2 Q-18.7 12.6 -17.35 7.75 L-17.3 7.55 Q-15.8 3.95 -14.15 4.55 -12.95 4.85 -9.9 6.05 L-0.5 8.95 8.9 6.1 Q11.9 4.9 13.2 4.6 M11.0 10.55 L10.95 10.55 11.1 9.95 9.05 10.55 1.2 12.15 Q1.45 13.25 3.0 13.95 5.35 15.0 7.85 14.95 10.05 14.0 11.0 10.55" fill="#000000" fill-rule="evenodd" stroke="none"/>
      <path d="M15.85 7.8 L15.85 7.85 Q17.1 12.5 14.4 15.95 L13.75 16.75 13.6 16.85 12.15 18.2 12.1 18.25 Q10.3 19.25 8.3 19.0 3.6 18.6 -0.45 14.8 -4.65 18.55 -9.35 18.95 -11.35 19.2 -13.15 18.2 L-13.2 18.15 -14.65 16.8 -15.4 15.9 Q-18.15 12.45 -16.85 7.8 L-16.85 7.75 Q-15.55 4.65 -14.3 5.0 L-10.1 6.5 -0.5 9.45 9.05 6.55 13.3 5.05 Q14.5 4.7 15.85 7.8 M10.2 9.7 Q5.65 11.0 0.65 11.7 0.65 13.4 2.8 14.4 5.3 15.55 8.0 15.45 10.45 14.45 11.45 10.65 11.7 9.5 11.2 9.55 L10.2 9.7 M-0.45 14.25 L-0.5 14.2 -0.5 14.25 -0.45 14.25 M-11.15 9.65 L-12.15 9.5 Q-12.65 9.45 -12.4 10.6 -11.4 14.4 -8.95 15.4 -6.25 15.5 -3.75 14.35 -1.65 13.35 -1.6 11.65 -6.6 10.95 -11.15 9.65 M12.45 16.7 L12.45 16.65 12.4 16.7 12.45 16.7" fill="#280014" fill-rule="evenodd" stroke="none"/>
      <path d="M3.7 15.35 L7.9 15.85 8.0 15.85 8.15 15.8 Q9.9 15.25 10.95 13.75 11.75 12.7 12.15 10.9 12.35 9.65 11.8 9.2 11.3 8.6 10.5 8.9 L6.25 10.1 6.75 8.15 10.9 6.75 11.15 6.7 11.35 6.6 11.55 6.5 11.85 6.35 13.1 5.95 Q14.15 5.65 14.9 8.1 16.0 12.3 13.55 15.35 L13.55 15.4 13.15 15.85 12.4 16.7 12.45 16.65 12.2 16.95 11.95 17.2 Q10.45 18.45 7.4 17.9 5.15 17.5 2.95 16.4 L3.7 15.35 M8.7 16.55 L8.9 16.5 8.85 16.5 8.7 16.55" fill="#4b0126" fill-rule="evenodd" stroke="none"/>
      <path d="M3.7 15.35 L2.95 16.4 -0.2 14.45 -0.45 14.25 -0.5 14.25 -0.5 14.2 -0.55 14.2 Q-4.55 17.2 -8.4 17.85 L-8.65 17.9 -8.75 17.6 -8.9 17.15 Q-9.05 16.35 -9.35 15.7 L-9.15 15.75 -8.95 15.8 -8.85 15.8 Q-6.15 16.05 -3.45 14.8 -1.25 13.7 -1.15 11.8 L-1.2 11.3 -10.7 9.1 -10.75 9.05 -11.15 7.0 Q-6.35 8.7 -0.6 9.85 L-0.5 9.9 -0.25 9.85 6.75 8.15 6.25 10.1 0.25 11.3 0.25 11.35 0.2 11.65 0.2 11.75 0.2 11.8 Q0.3 13.7 2.5 14.85 L3.7 15.35" fill="#660033" fill-rule="evenodd" stroke="none"/>
      <path d="M-10.7 9.1 L-11.45 8.85 Q-12.25 8.55 -12.75 9.15 -13.3 9.6 -13.1 10.85 -12.7 12.65 -11.9 13.7 -10.9 15.15 -9.35 15.7 -9.05 16.35 -8.9 17.15 L-8.75 17.6 -8.65 17.9 -9.0 17.95 Q-11.6 18.3 -12.95 17.2 L-13.95 16.1 -14.2 15.8 -14.55 15.35 -14.6 15.3 Q-17.05 12.25 -15.9 8.05 -15.2 5.6 -14.15 5.9 L-12.9 6.3 Q-12.7 6.4 -12.55 6.45 L-12.35 6.55 -12.15 6.65 -11.95 6.7 -11.25 6.95 -11.15 7.0 -10.75 9.05 -10.7 9.1 M-12.75 8.6 L-12.75 8.65 -12.7 8.6 -12.75 8.6" fill="#840042" fill-rule="evenodd" stroke="none"/>
    </g>
  </defs>
</svg>
